X: 3239
M: 6/8
L: 1/8
K: D
|:\
vd2vf ecA | BdB AFD |\
d2f ecA | B2c d3 |\
d2f ecA | BdB AFD |\
dfa afd | ced cBA |\
[1 dfa afd | f3 a3 :|\
[2 GAB Adc | d3- d2 |]


